tools/download-figma-icons/icons/solid/person-folder.svg

<svg width="24" height="24" viewBox="0 0 24 24" fill="none" xmlns="http://www.w3.org/2000/svg">
<path fill-rule="evenodd" clip-rule="evenodd" d="M9.02274 16.32L9.56274 14.0625C9.86274 12.8333 10.8677 11.94 12.0745 11.76C11.3402 11.2732 10.8452 10.4325 10.8452 9.4725C10.8452 7.965 12.0302 6.75 13.5002 6.75C14.9702 6.75 16.1552 7.965 16.1552 9.4725C16.1552 10.4325 15.6602 11.2732 14.9252 11.76C16.132 11.94 17.137 12.8333 17.4302 14.0625L17.977 16.32C18.0977 16.7925 17.7452 17.25 17.2645 17.25H9.73524C9.25524 17.25 8.90274 16.7925 9.02274 16.32ZM20.2502 0H5.25023C4.01198 0 3.00023 1.0125 3.00023 2.25V3.75H3.75023H4.50023H5.25023C6.07448 3.75 6.75023 4.42575 6.75023 5.25C6.75023 6.075 6.07448 6.75 5.25023 6.75H4.50023H3.75023H3.00023V8.25H3.75023H4.50023H5.25023C6.07448 8.25 6.75023 8.92575 6.75023 9.75C6.75023 10.575 6.07448 11.25 5.25023 11.25H4.50023H3.75023H3.00023V12.75H3.75023H4.50023H5.25023C6.07448 12.75 6.75023 13.4257 6.75023 14.25C6.75023 15.075 6.07448 15.75 5.25023 15.75H4.50023H3.75023H3.00023V17.25H3.75023H4.50023H5.25023C6.07448 17.25 6.75023 17.9258 6.75023 18.75C6.75023 19.575 6.07448 20.25 5.25023 20.25H4.50023H3.75023H3.00023V21.75C3.00023 22.9883 4.01198 24 5.25023 24H20.2502C21.4877 24 22.5002 22.9883 22.5002 21.75V2.25C22.5002 1.0125 21.4877 0 20.2502 0ZM2.25 6.0002H3H3.75H4.5H5.25C5.6625 6.0002 6 5.6627 6 5.2502C6 4.8377 5.6625 4.5002 5.25 4.5002H4.5H3.75H3H2.25C1.8375 4.5002 1.5 4.8377 1.5 5.2502C1.5 5.6627 1.8375 6.0002 2.25 6.0002ZM4.5 19.5002H3.75H3H2.25C1.8375 19.5002 1.5 19.1627 1.5 18.7502C1.5 18.3377 1.8375 18.0002 2.25 18.0002H3H3.75H4.5H5.25C5.6625 18.0002 6 18.3377 6 18.7502C6 19.1627 5.6625 19.5002 5.25 19.5002H4.5ZM2.25 15.0002H3H3.75H4.5H5.25C5.6625 15.0002 6 14.6627 6 14.2502C6 13.8377 5.6625 13.5002 5.25 13.5002H4.5H3.75H3H2.25C1.8375 13.5002 1.5 13.8377 1.5 14.2502C1.5 14.6627 1.8375 15.0002 2.25 15.0002ZM3 10.5002H2.25C1.8375 10.5002 1.5 10.1627 1.5 9.7502C1.5 9.3377 1.8375 9.0002 2.25 9.0002H3H3.75H4.5H5.25C5.6625 9.0002 6 9.3377 6 9.7502C6 10.1627 5.6625 10.5002 5.25 10.5002H4.5H3.75H3Z" fill="black"/>
</svg>

<svg width="24" height="24" viewBox="0 0 24 24" fill="none" xmlns="http://www.w3.org/2000/svg"><path fill-rule="evenodd" clip-rule="evenodd" d="m9.023 16.32.54-2.258a3.052 3.052 0 0 1 2.511-2.302 2.744 2.744 0 0 1-1.229-2.287c0-1.508 1.185-2.723 2.655-2.723 1.47 0 2.655 1.215 2.655 2.723 0 .96-.495 1.8-1.23 2.287a3.035 3.035 0 0 1 2.505 2.303l.547 2.257a.742.742 0 0 1-.712.93h-7.53a.742.742 0 0 1-.712-.93ZM20.25 0h-15A2.256 2.256 0 0 0 3 2.25v1.5h2.25c.824 0 1.5.676 1.5 1.5 0 .825-.676 1.5-1.5 1.5H3v1.5h2.25c.824 0 1.5.676 1.5 1.5 0 .825-.676 1.5-1.5 1.5H3v1.5h2.25c.824 0 1.5.676 1.5 1.5 0 .825-.676 1.5-1.5 1.5H3v1.5h2.25c.824 0 1.5.676 1.5 1.5 0 .825-.676 1.5-1.5 1.5H3v1.5A2.256 2.256 0 0 0 5.25 24h15a2.256 2.256 0 0 0 2.25-2.25V2.25A2.257 2.257 0 0 0 20.25 0Zm-18 6h3c.412 0 .75-.337.75-.75a.752.752 0 0 0-.75-.75h-3a.752.752 0 0 0-.75.75c0 .413.337.75.75.75ZM4.5 19.5H2.25a.752.752 0 0 1-.75-.75c0-.412.337-.75.75-.75h3c.412 0 .75.338.75.75 0 .413-.338.75-.75.75H4.5ZM2.25 15h3c.412 0 .75-.337.75-.75a.752.752 0 0 0-.75-.75h-3a.752.752 0 0 0-.75.75c0 .413.337.75.75.75ZM3 10.5h-.75a.752.752 0 0 1-.75-.75c0-.412.337-.75.75-.75h3c.412 0 .75.338.75.75 0 .413-.338.75-.75.75H3Z" fill="currentColor"/></svg>
